overrides/.icons/class/bard.svg

<?xml version="1.0" encoding="UTF-8"?>
<svg id="svg8" version="1.1" viewBox="0 0 6.35 6.35" xmlns="http://www.w3.org/2000/svg" xmlns:cc="http://creativecommons.org/ns#" xmlns:dc="http://purl.org/dc/elements/1.1/" xmlns:rdf="http://www.w3.org/1999/02/22-rdf-syntax-ns#">
 <defs id="defs2">
  <clipPath id="clipPath881">
   <path id="path879" d="m0 2020h2020v-2020h-2020z"/>
  </clipPath>
 </defs>
 <metadata id="metadata5">
  <rdf:RDF>
   <cc:Work rdf:about="">
    <dc:format>image/svg+xml</dc:format>
    <dc:type rdf:resource="http://purl.org/dc/dcmitype/StillImage"/>
   </cc:Work>
  </rdf:RDF>
 </metadata>
 <g id="layer1" transform="translate(15.782 66.76)">
  <g id="g875" transform="matrix(.0051225 0 0 -.0051225 -17.896 -58.411)" stroke-width="68.911">
   <g id="g877" clip-path="url(#clipPath881)" stroke-width="68.911">
    <g id="g883" transform="translate(949 689.26)">
     <path id="path885" d="m0 0v274.98c21.822-18.062 40.235-40.052 54.118-64.955 10.001-17.939 14.629-38.387 14.629-58.926v-160.46c-23.59 0.991-46.572 4.186-68.747 9.361m-268.39 333.53c0 81.284 30.422 190.18 59.694 269.06 2.07 6.098 3.809 11.924 5.466 17.68 26.114 5.618 51.469 10.204 75.556 13.886v-576.26c-85.402 61.703-140.72 160.61-140.72 275.64m337.14 315.95v-141.63c0-21.382-4.74-42.71-15.256-61.327-13.808-24.443-31.996-46.046-53.491-63.837v264.84c30.845 1.756 54.61 2.035 68.747 1.963m98.263-1.966v-264.83c-21.495 17.791-39.683 39.394-53.491 63.837-10.517 18.617-15.256 39.945-15.256 61.327v141.63c14.152 0.072 37.916-0.209 68.747-1.966m208.7-44.924c29.271-78.878 59.692-187.78 59.692-269.06 0-115.03-55.313-213.94-140.72-275.64v576.26c24.089-3.683 49.445-8.271 75.56-13.89 1.656-5.752 3.394-11.574 5.463-17.668m-262.81-392.57c13.883 24.903 32.296 46.893 54.118 64.955v-274.98c-22.176-5.175-45.157-8.37-68.747-9.361v160.46c0 20.539 4.628 40.987 14.629 58.926m-211.1 112.58 3.942-0.908c23.207-5.347 44.953-14.264 64.805-25.989v-287.48c-24.185 7.847-47.238 18.047-68.747 30.513zm3.943 13.355-3.943-0.909v303.24c24.78 3.226 47.874 5.555 68.747 7.207v-283.55c-19.852-11.724-41.597-20.642-64.804-25.989m359.49-0.909-3.943 0.909c-23.207 5.347-44.952 14.265-64.804 25.989v283.55c20.874-1.653 43.968-3.981 68.747-7.21zm-3.942-13.354 3.942 0.908v-283.86c-21.509-12.466-44.561-22.666-68.747-30.513v287.48c19.852 11.725 41.598 20.642 64.805 25.989m303.48 12.042c0 72.526-37.069 173.22-67.299 251.29 23.839-8.224 47.725-17.43 71.364-27.866l-23.372 56.074c-22.874 9.684-45.914 18.189-68.858 25.756-4.467 11.81-8.337 22.44-11.272 31.451-11.656 35.783 21.22 81.928 61.381 86.002v58.926s-182.59 16.082-166.37-145.41c-152.7 31.732-276.85 25.439-276.85 25.439s-124.12 6.292-276.8-25.426c16.202 161.48-166.38 145.4-166.38 145.4v-58.926c40.162-4.074 73.037-50.219 61.381-86.002-2.933-9.006-6.801-19.63-11.264-31.431-22.964-7.573-46.025-16.084-68.92-25.776l-23.372-56.074c23.66 10.445 47.566 19.659 71.427 27.888-30.232-78.073-67.308-178.78-67.308-251.32 0-274.68 194.78-499.16 466.5-507.68v-0.296h10.666v-0.037c0.969-6e-3 1.92-0.073 2.891-0.073 0.404 0 0.798 0.029 1.201 0.03 0.403-1e-3 0.797-0.03 1.201-0.03 0.971 0 1.921 0.067 2.891 0.073v0.037h10.666v0.296c271.72 8.51 466.5 233 466.5 507.68"/>
    </g>
    <g id="g887" transform="translate(1554.1 1024.7)">
     <path id="path889" d="m0 0c-3.622-0.759-2.141-0.448-5.763-1.207 12.785-112.02-5.477-218.34-54.254-309.46-57.65-107.69-156.32-168.01-202.92-191.78 1.313-3.281 0.905-2.263 2.218-5.544 339.91 86.816 289.34 399.74 260.72 508"/>
    </g>
    <g id="g891" transform="translate(570.89 714.05)">
     <path id="path893" d="m0 0c-48.777 91.117-67.039 197.44-54.253 309.46-3.622 0.758-2.142 0.448-5.763 1.207-28.624-108.25-79.191-421.18 260.72-508 1.313 3.281 0.905 2.263 2.218 5.544-46.604 23.771-145.27 84.092-202.92 191.78"/>
    </g>
   </g>
  </g>
 </g>
</svg>

<?xml version="1.0" encoding="UTF-8" standalone="no"?>
<svg
   viewBox="0 0 6.3499997 6.3499997"
   version="1.1"
   id="svg8"
   inkscape:version="1.3.2 (091e20e, 2023-11-25, custom)"
   sodipodi:docname="class-bard.svg"
   xmlns:inkscape="http://www.inkscape.org/namespaces/inkscape"
   xmlns:sodipodi="http://sodipodi.sourceforge.net/DTD/sodipodi-0.dtd"
   xmlns="http://www.w3.org/2000/svg"
   xmlns:svg="http://www.w3.org/2000/svg"
   xmlns:rdf="http://www.w3.org/1999/02/22-rdf-syntax-ns#"
   xmlns:cc="http://creativecommons.org/ns#"
   xmlns:dc="http://purl.org/dc/elements/1.1/">
  <defs
     id="defs2">
    <clipPath
       clipPathUnits="userSpaceOnUse"
       id="clipPath28">
      <path
         d="M 0,2020 H 2020 V 0 H 0 Z"
         id="path26" />
    </clipPath>
    <clipPath
       clipPathUnits="userSpaceOnUse"
       id="clipPath48">
      <path
         d="M 0,2020 H 2020 V 0 H 0 Z"
         id="path46" />
    </clipPath>
    <clipPath
       clipPathUnits="userSpaceOnUse"
       id="clipPath167">
      <path
         d="M 0,2020 H 2020 V 0 H 0 Z"
         id="path165" />
    </clipPath>
    <clipPath
       clipPathUnits="userSpaceOnUse"
       id="clipPath179">
      <path
         d="M 0,2020 H 2020 V 0 H 0 Z"
         id="path177" />
    </clipPath>
    <clipPath
       clipPathUnits="userSpaceOnUse"
       id="clipPath281">
      <path
         d="M 0,2020 H 2020 V 0 H 0 Z"
         id="path279" />
    </clipPath>
    <clipPath
       clipPathUnits="userSpaceOnUse"
       id="clipPath301">
      <path
         d="M 0,2020 H 2020 V 0 H 0 Z"
         id="path299" />
    </clipPath>
    <clipPath
       clipPathUnits="userSpaceOnUse"
       id="clipPath396">
      <path
         d="M 0,2020 H 2020 V 0 H 0 Z"
         id="path394" />
    </clipPath>
    <clipPath
       clipPathUnits="userSpaceOnUse"
       id="clipPath456">
      <path
         d="M 0,2020 H 2020 V 0 H 0 Z"
         id="path454" />
    </clipPath>
    <clipPath
       clipPathUnits="userSpaceOnUse"
       id="clipPath619">
      <path
         d="M 0,2020 H 2020 V 0 H 0 Z"
         id="path617" />
    </clipPath>
    <clipPath
       clipPathUnits="userSpaceOnUse"
       id="clipPath659">
      <path
         d="M 0,2020 H 2020 V 0 H 0 Z"
         id="path657" />
    </clipPath>
    <clipPath
       clipPathUnits="userSpaceOnUse"
       id="clipPath782">
      <path
         d="M 0,2020 H 2020 V 0 H 0 Z"
         id="path780" />
    </clipPath>
    <clipPath
       clipPathUnits="userSpaceOnUse"
       id="clipPath798">
      <path
         d="M 0,2020 H 2020 V 0 H 0 Z"
         id="path796" />
    </clipPath>
    <clipPath
       clipPathUnits="userSpaceOnUse"
       id="clipPath881">
      <path
         d="M 0,2020 H 2020 V 0 H 0 Z"
         id="path879" />
    </clipPath>
    <clipPath
       clipPathUnits="userSpaceOnUse"
       id="clipPath901">
      <path
         d="M 0,2020 H 2020 V 0 H 0 Z"
         id="path899" />
    </clipPath>
  </defs>
  <sodipodi:namedview
     id="base"
     pagecolor="#ffffff"
     bordercolor="#666666"
     borderopacity="1.0"
     inkscape:pageopacity="0.0"
     inkscape:pageshadow="2"
     inkscape:zoom="14.638042"
     inkscape:cx="2.4593453"
     inkscape:cy="11.920993"
     inkscape:document-units="px"
     inkscape:current-layer="layer1"
     inkscape:document-rotation="0"
     showgrid="true"
     inkscape:showpageshadow="false"
     units="px"
     inkscape:window-width="1360"
     inkscape:window-height="715"
     inkscape:window-x="-8"
     inkscape:window-y="-8"
     inkscape:window-maximized="1"
     inkscape:pagecheckerboard="0"
     inkscape:deskcolor="#d1d1d1">
    <inkscape:grid
       type="xygrid"
       id="grid183"
       originx="-8.1395321"
       originy="-29.95495"
       spacingy="1"
       spacingx="1"
       units="px"
       visible="true" />
  </sodipodi:namedview>
  <metadata
     id="metadata5">
    <rdf:RDF>
      <cc:Work
         rdf:about="">
        <dc:format>image/svg+xml</dc:format>
        <dc:type
           rdf:resource="http://purl.org/dc/dcmitype/StillImage" />
      </cc:Work>
    </rdf:RDF>
  </metadata>
  <g
     inkscape:label="Layer 1"
     inkscape:groupmode="layer"
     id="layer1"
     transform="translate(15.781856,66.760201)">
    <g
       id="g875"
       transform="matrix(0.00512253,0,0,-0.00512253,-17.895889,-58.411445)"
       style="stroke-width:68.9113;stroke-dasharray:none">
      <g
         id="g877"
         clip-path="url(#clipPath881)"
         style="stroke-width:68.9113;stroke-dasharray:none">
        <g
           id="g883"
           transform="translate(948.999,689.2578)"
           style="stroke-width:68.9113;stroke-dasharray:none">
          <path
             d="M 0,0 V 274.981 C 21.822,256.919 40.235,234.929 54.118,210.026 64.119,192.087 68.747,171.639 68.747,151.1 V -9.361 C 45.157,-8.37 22.175,-5.175 0,0 m -268.389,333.532 c 0,81.284 30.422,190.182 59.694,269.06 2.07,6.098 3.809,11.924 5.466,17.68 26.114,5.618 51.469,10.204 75.556,13.886 V 57.894 c -85.402,61.703 -140.716,160.609 -140.716,275.638 M 68.747,649.482 V 507.848 c 0,-21.382 -4.74,-42.71 -15.256,-61.327 C 39.683,422.078 21.495,400.475 0,382.684 v 264.835 c 30.845,1.756 54.61,2.035 68.747,1.963 m 98.263,-1.966 V 382.684 c -21.495,17.791 -39.683,39.394 -53.491,63.837 -10.517,18.617 -15.256,39.945 -15.256,61.327 v 141.634 c 14.152,0.072 37.916,-0.209 68.747,-1.966 m 208.696,-44.924 c 29.271,-78.878 59.692,-187.776 59.692,-269.06 0,-115.029 -55.313,-213.935 -140.715,-275.638 V 634.15 c 24.089,-3.683 49.445,-8.271 75.56,-13.89 1.656,-5.752 3.394,-11.574 5.463,-17.668 M 112.892,210.026 c 13.883,24.903 32.296,46.893 54.118,64.955 V 0 C 144.834,-5.175 121.853,-8.37 98.263,-9.361 V 151.1 c 0,20.539 4.628,40.987 14.629,58.926 m -211.102,112.583 3.942,-0.908 c 23.207,-5.347 44.953,-14.264 64.805,-25.989 V 8.232 c -24.185,7.847 -47.238,18.047 -68.747,30.513 z m 3.943,13.355 -3.943,-0.909 v 303.244 c 24.78,3.226 47.874,5.555 68.747,7.207 V 361.953 C -49.315,350.229 -71.06,341.311 -94.267,335.964 m 359.487,-0.909 -3.943,0.909 c -23.207,5.347 -44.952,14.265 -64.804,25.989 v 283.548 c 20.874,-1.653 43.968,-3.981 68.747,-7.21 z m -3.942,-13.354 3.942,0.908 V 38.745 C 243.711,26.279 220.659,16.079 196.473,8.232 v 287.48 c 19.852,11.725 41.598,20.642 64.805,25.989 m 303.481,12.042 c 0,72.526 -37.069,173.224 -67.299,251.293 23.839,-8.224 47.725,-17.43 71.364,-27.866 l -23.372,56.074 c -22.874,9.684 -45.914,18.189 -68.858,25.756 -4.467,11.81 -8.337,22.44 -11.272,31.451 -11.656,35.783 21.22,81.928 61.381,86.002 v 58.926 c 0,0 -182.586,16.082 -166.374,-145.413 -152.704,31.732 -276.851,25.439 -276.851,25.439 0,0 -124.117,6.292 -276.795,-25.426 16.202,161.482 -166.376,145.4 -166.376,145.4 v -58.926 c 40.162,-4.074 73.037,-50.219 61.381,-86.002 -2.933,-9.006 -6.801,-19.63 -11.264,-31.431 -22.964,-7.573 -46.025,-16.084 -68.92,-25.776 l -23.372,-56.074 c 23.66,10.445 47.566,19.659 71.427,27.888 -30.232,-78.073 -67.308,-178.783 -67.308,-251.315 0,-274.675 194.781,-499.165 466.496,-507.675 v -0.296 H 68.8 79.413 c 0,-0.001 0,-0.037 0,-0.037 0.969,-0.006 1.92,-0.073 2.891,-0.073 0.404,0 0.798,0.029 1.201,0.03 0.403,-0.001 0.797,-0.03 1.201,-0.03 0.971,0 1.921,0.067 2.891,0.073 0,0 0,0.036 0,0.037 h 10.612 0.054 v 0.296 c 271.715,8.51 466.496,233 466.496,507.675"
             style="fill-opacity:1;fill-rule:nonzero;stroke:none;stroke-width:68.9113;stroke-dasharray:none"
             id="path885" />
        </g>
        <g
           id="g887"
           transform="translate(1554.1323,1024.7168)"
           style="stroke-width:68.9113;stroke-dasharray:none">
          <path
             d="m 0,0 c -3.622,-0.759 -2.141,-0.448 -5.763,-1.207 12.785,-112.015 -5.477,-218.343 -54.254,-309.46 -57.65,-107.693 -156.32,-168.014 -202.923,-191.785 1.313,-3.281 0.905,-2.263 2.218,-5.544 C 79.191,-421.18 28.623,-108.253 0,0"
             style="fill-opacity:1;fill-rule:nonzero;stroke:none;stroke-width:68.9113;stroke-dasharray:none"
             id="path889" />
        </g>
        <g
           id="g891"
           transform="translate(570.8921,714.0498)"
           style="stroke-width:68.9113;stroke-dasharray:none">
          <path
             d="m 0,0 c -48.777,91.117 -67.039,197.445 -54.253,309.46 -3.622,0.758 -2.142,0.448 -5.763,1.207 -28.624,-108.254 -79.191,-421.18 260.722,-507.996 1.313,3.281 0.905,2.263 2.218,5.544 C 156.32,-168.014 57.65,-107.693 0,0"
             style="fill-opacity:1;fill-rule:nonzero;stroke:none;stroke-width:68.9113;stroke-dasharray:none"
             id="path893" />
        </g>
      </g>
    </g>
  </g>
</svg>
